X: 1477
T: More Power to Your Elbow   #2
T: co.ma.cd's tuile le do uilleann
R: reel
%S: s:2 b:13(6+7)
B: O'Neill's "Music of Ireland" 1850 #1477
O: O'Reilly
Z: transcribed by John B. Walsh, 8/22/96
Z: Compacted via repeats and multiple endings [JC]
M: C|
L: 1/8
K: G
(GE)\
"^A"|: DGGB AGGB | dGBG AGEG | DGGB AGGg | dgdB [1 AGEG :|2 G2 |] (ef) "^B"| g2(ge) dgge |
| dBGB (AG) E2 | g2(ge) degb | agab a2(ga) || bagb ageg | dGBG AGEG | DGGB AGGg | egdB G2 |]

